X:88
T:Gan Ainm
R:Reel
S:Jim Mulqueeny, Clare (fiddle).
D:A mysterious tape
H:'c's and 'f's very mobile
Q:400
M:4/4
Z:Bernie Stocks
K:G
|: EAAG ABcE | E2DE GE~E2 | EAAG AB^cd |1 edcA G2ED :|2 edcA G2EG ||
|: Ad{e}d^c d2cA | d2^cA G2EG |1 Addc ABcd | efed cAGE :|2 Adde fefd | dccA GAdc ||
<end>
<start>
